Adwaita++-Dark/mimetypes/16/application-ascii.svg

<svg height="16" viewBox="0 0 16 16" width="16" xmlns="http://www.w3.org/2000/svg">
  <path d="m3.086295 9.795579h-.693062l-.249071-.790056h-1.202029l-.249071.790056h-.693062l1.239933-3.59116h.606429zm-1.635195-2.411208-.335702 1.067087h.855499l-.335702-1.067087q-.054145-.164167-.092047-.400157-.064976.312944-.092048.400157zm3.470728 2.472772q-.460236 0-.828426-.251384-.36819-.25138-.519797-.672058l.584771-.20521q.124534.251384.343823.402724.219291.151341.473773.151341.249071 0 .400678-.123124.151607-.123128.151607-.353987 0-.194947-.205752-.346292-.205753-.151341-.573943-.305247-.232826-.097474-.373603-.169297-.14078-.071823-.316753-.200079-.175971-.128255-.262604-.302683-.086633-.174428-.086633-.389899 0-.400157.322165-.674624.322166-.274467.847378-.274467.416919 0 .728256.215468.311337.215471.414213.548935l-.579357.184688q-.194924-.374506-.601015-.374506-.211168 0-.346531.102605-.135364.102605-.135364.282162 0 .041043.010829.079518.010829.038477.037902.071825.027072.033346.051439.061562.024364.028216.075803.061562.051439.033346.086633.053867.035196.020522.105583.053867.07039.033348.108292.048738.037902.01539.124534.053867.086633.038478.124535.053868.227412.097475.379019.182122.151607.08465.335701.223166.184095.138517.281557.328336.097462.189816.097462.415548 0 .492501-.365481.779793-.365482.287295-.890694.287295zm3.35702-.005131q-.319457 0-.576647-.107734-.25719-.107735-.42775-.284728-.17056-.176994-.284265-.420679-.113705-.243685-.162438-.502764-.048729-.259075-.048729-.536108 0-.338595.083925-.654105.083925-.315508.25719-.589975.173266-.274467.471068-.4412.297802-.166733.687646-.166733.443993 0 .741795.215471.297802.215468.433166.533542l-.573945.261643q-.119117-.215471-.257191-.323205-.138069-.107735-.343825-.107735-.292382 0-.487306.20521-.194924.205208-.270728.479676-.075803.274467-.075803.587411 0 .507892.216578.890095.216583.382204.617259.382204.379021 0 .606431-.461722l.584773.210338q-.357362.831098-1.191204.831098zm4.38579-3.647593v.538674h-.795939v2.513811h.795939v.538675h-2.230797v-.538675h.790525v-2.513811h-.790525v-.538674zm3.335362 0v.538674h-.79594v2.513811h.79594v.538675h-2.230793v-.538675h.790524v-2.513811h-.790524v-.538674z" fill="#e6ddff" fill-rule="evenodd"/>
</svg>

<svg xmlns="http://www.w3.org/2000/svg" style="isolation:isolate" width="16" height="16" viewBox="0 0 16 16">
 <defs>
  <style id="current-color-scheme" type="text/css">
   .ColorScheme-Text { color:#E6DDFF; } .ColorScheme-Highlight { color:#5294e2; }
  </style>
  <linearGradient id="arrongin" x1="0%" x2="0%" y1="0%" y2="100%">
   <stop offset="0%" style="stop-color:#dd9b44"/>
   <stop offset="100%" style="stop-color:#ad6c16"/>
  </linearGradient>
  <linearGradient id="aurora" x1="0%" x2="0%" y1="0%" y2="100%">
   <stop offset="0%" style="stop-color:#09D4DF"/>
   <stop offset="100%" style="stop-color:#9269F4"/>
  </linearGradient>
  <linearGradient id="fitdance" x1="0%" x2="0%" y1="0%" y2="100%">
   <stop offset="0%" style="stop-color:#1AD6AB"/>
   <stop offset="100%" style="stop-color:#329DB6"/>
  </linearGradient>
  <linearGradient id="oomox" x1="0%" x2="0%" y1="0%" y2="100%">
   <stop offset="0%" style="stop-color:#efefe7"/>
   <stop offset="100%" style="stop-color:#8f8f8b"/>
  </linearGradient>
  <linearGradient id="rainblue" x1="0%" x2="0%" y1="0%" y2="100%">
   <stop offset="0%" style="stop-color:#00F260"/>
   <stop offset="100%" style="stop-color:#0575E6"/>
  </linearGradient>
  <linearGradient id="sunrise" x1="0%" x2="0%" y1="0%" y2="100%">
   <stop offset="0%" style="stop-color:#FF8501"/>
   <stop offset="100%" style="stop-color:#FFCB01"/>
  </linearGradient>
  <linearGradient id="telinkrin" x1="0%" x2="0%" y1="0%" y2="100%">
   <stop offset="0%" style="stop-color:#b2ced6"/>
   <stop offset="100%" style="stop-color:#6da5b7"/>
  </linearGradient>
  <linearGradient id="60spsycho" x1="0%" x2="0%" y1="0%" y2="100%">
   <stop offset="0%" style="stop-color:#df5940"/>
   <stop offset="25%" style="stop-color:#d8d15f"/>
   <stop offset="50%" style="stop-color:#e9882a"/>
   <stop offset="100%" style="stop-color:#279362"/>
  </linearGradient>
  <linearGradient id="90ssummer" x1="0%" x2="0%" y1="0%" y2="100%">
   <stop offset="0%" style="stop-color:#f618c7"/>
   <stop offset="20%" style="stop-color:#94ffab"/>
   <stop offset="50%" style="stop-color:#fbfd54"/>
   <stop offset="100%" style="stop-color:#0f83ae"/>
  </linearGradient>
  <linearGradient id="cyberneon" x1="0%" x2="0%" y1="0%" y2="100%">
   <stop offset="0" style="stop-color:#0abdc6"/>
   <stop offset="1" style="stop-color:#ea00d9"/>
  </linearGradient>
 </defs>
 <path style="fill:currentColor" fill-rule="evenodd" class="ColorScheme-Text" d="M 3.086295 9.795579 L 2.393233 9.795579 L 2.144162 9.005523 L 0.942133 9.005523 L 0.693062 9.795579 L 0 9.795579 L 1.239933 6.204419 L 1.846362 6.204419 L 3.086295 9.795579 Z M 1.4511 7.384371 L 1.115398 8.451458 L 1.970897 8.451458 L 1.635195 7.384371 L 1.635195 7.384371 Q 1.58105 7.220204 1.543148 6.984214 L 1.543148 6.984214 L 1.543148 6.984214 Q 1.478172 7.297158 1.4511 7.384371 L 1.4511 7.384371 Z M 4.921828 9.857143 L 4.921828 9.857143 L 4.921828 9.857143 Q 4.461592 9.857143 4.093402 9.605759 L 4.093402 9.605759 L 4.093402 9.605759 Q 3.725212 9.354379 3.573605 8.933701 L 3.573605 8.933701 L 4.158376 8.728491 L 4.158376 8.728491 Q 4.28291 8.979875 4.502199 9.131215 L 4.502199 9.131215 L 4.502199 9.131215 Q 4.72149 9.282556 4.975972 9.282556 L 4.975972 9.282556 L 4.975972 9.282556 Q 5.225043 9.282556 5.37665 9.159432 L 5.37665 9.159432 L 5.37665 9.159432 Q 5.528257 9.036304 5.528257 8.805445 L 5.528257 8.805445 L 5.528257 8.805445 Q 5.528257 8.610498 5.322505 8.459153 L 5.322505 8.459153 L 5.322505 8.459153 Q 5.116752 8.307812 4.748562 8.153906 L 4.748562 8.153906 L 4.748562 8.153906 Q 4.515736 8.056432 4.374959 7.984609 L 4.374959 7.984609 L 4.374959 7.984609 Q 4.234179 7.912786 4.058206 7.78453 L 4.058206 7.78453 L 4.058206 7.78453 Q 3.882235 7.656275 3.795602 7.481847 L 3.795602 7.481847 L 3.795602 7.481847 Q 3.708969 7.307419 3.708969 7.091948 L 3.708969 7.091948 L 3.708969 7.091948 Q 3.708969 6.691791 4.031134 6.417324 L 4.031134 6.417324 L 4.031134 6.417324 Q 4.3533 6.142857 4.878512 6.142857 L 4.878512 6.142857 L 4.878512 6.142857 Q 5.295431 6.142857 5.606768 6.358325 L 5.606768 6.358325 L 5.606768 6.358325 Q 5.918105 6.573796 6.020981 6.90726 L 6.020981 6.90726 L 5.441624 7.091948 L 5.441624 7.091948 Q 5.2467 6.717442 4.840609 6.717442 L 4.840609 6.717442 L 4.840609 6.717442 Q 4.629441 6.717442 4.494078 6.820047 L 4.494078 6.820047 L 4.494078 6.820047 Q 4.358714 6.922652 4.358714 7.102209 L 4.358714 7.102209 L 4.358714 7.102209 Q 4.358714 7.143252 4.369543 7.181727 L 4.369543 7.181727 L 4.369543 7.181727 Q 4.380372 7.220204 4.407445 7.253552 L 4.407445 7.253552 L 4.407445 7.253552 Q 4.434517 7.286898 4.458884 7.315114 L 4.458884 7.315114 L 4.458884 7.315114 Q 4.483248 7.34333 4.534687 7.376676 L 4.534687 7.376676 L 4.534687 7.376676 Q 4.586126 7.410022 4.62132 7.430543 L 4.62132 7.430543 L 4.62132 7.430543 Q 4.656516 7.451065 4.726903 7.48441 L 4.726903 7.48441 L 4.726903 7.48441 Q 4.797293 7.517758 4.835195 7.533148 L 4.835195 7.533148 L 4.835195 7.533148 Q 4.873097 7.548538 4.959729 7.587015 L 4.959729 7.587015 L 4.959729 7.587015 Q 5.046362 7.625493 5.084264 7.640883 L 5.084264 7.640883 L 5.084264 7.640883 Q 5.311676 7.738358 5.463283 7.823005 L 5.463283 7.823005 L 5.463283 7.823005 Q 5.61489 7.907655 5.798984 8.046171 L 5.798984 8.046171 L 5.798984 8.046171 Q 5.983079 8.184688 6.080541 8.374507 L 6.080541 8.374507 L 6.080541 8.374507 Q 6.178003 8.564323 6.178003 8.790055 L 6.178003 8.790055 L 6.178003 8.790055 Q 6.178003 9.282556 5.812522 9.569848 L 5.812522 9.569848 L 5.812522 9.569848 Q 5.44704 9.857143 4.921828 9.857143 Z M 8.278848 9.852012 L 8.278848 9.852012 L 8.278848 9.852012 Q 7.959391 9.852012 7.702201 9.744278 L 7.702201 9.744278 L 7.702201 9.744278 Q 7.445011 9.636543 7.274451 9.45955 L 7.274451 9.45955 L 7.274451 9.45955 Q 7.103891 9.282556 6.990186 9.038871 L 6.990186 9.038871 L 6.990186 9.038871 Q 6.876481 8.795186 6.827748 8.536107 L 6.827748 8.536107 L 6.827748 8.536107 Q 6.779019 8.277032 6.779019 7.999999 L 6.779019 7.999999 L 6.779019 7.999999 Q 6.779019 7.661404 6.862944 7.345894 L 6.862944 7.345894 L 6.862944 7.345894 Q 6.946869 7.030386 7.120134 6.755919 L 7.120134 6.755919 L 7.120134 6.755919 Q 7.2934 6.481452 7.591202 6.314719 L 7.591202 6.314719 L 7.591202 6.314719 Q 7.889004 6.147986 8.278848 6.147986 L 8.278848 6.147986 L 8.278848 6.147986 Q 8.722841 6.147986 9.020643 6.363457 L 9.020643 6.363457 L 9.020643 6.363457 Q 9.318445 6.578925 9.453809 6.896999 L 9.453809 6.896999 L 8.879864 7.158642 L 8.879864 7.158642 Q 8.760747 6.943171 8.622673 6.835437 L 8.622673 6.835437 L 8.622673 6.835437 Q 8.484604 6.727702 8.278848 6.727702 L 8.278848 6.727702 L 8.278848 6.727702 Q 7.986466 6.727702 7.791542 6.932912 L 7.791542 6.932912 L 7.791542 6.932912 Q 7.596618 7.13812 7.520814 7.412588 L 7.520814 7.412588 L 7.520814 7.412588 Q 7.445011 7.687055 7.445011 7.999999 L 7.445011 7.999999 L 7.445011 7.999999 Q 7.445011 8.507891 7.661589 8.890094 L 7.661589 8.890094 L 7.661589 8.890094 Q 7.878172 9.272298 8.278848 9.272298 L 8.278848 9.272298 L 8.278848 9.272298 Q 8.657869 9.272298 8.885279 8.810576 L 8.885279 8.810576 L 9.470052 9.020914 L 9.470052 9.020914 Q 9.11269 9.852012 8.278848 9.852012 Z M 12.664638 6.204419 L 12.664638 6.743093 L 11.868699 6.743093 L 11.868699 9.256904 L 12.664638 9.256904 L 12.664638 9.795579 L 10.433841 9.795579 L 10.433841 9.256904 L 11.224366 9.256904 L 11.224366 6.743093 L 10.433841 6.743093 L 10.433841 6.204419 L 12.664638 6.204419 Z M 16 6.204419 L 16 6.743093 L 15.20406 6.743093 L 15.20406 9.256904 L 16 9.256904 L 16 9.795579 L 13.769207 9.795579 L 13.769207 9.256904 L 14.559731 9.256904 L 14.559731 6.743093 L 13.769207 6.743093 L 13.769207 6.204419 L 16 6.204419 Z"/>
</svg>
